X: 28888
T: Mystery, The
R: reel
M: 4/4
K: Gmajor
gf|e2dB ~A3B|~G3B A2 (3Bcd|e2dB A2BA|GE~E2 G2 (3Bcd|
eBdB ~A3B|~G3B A2 (3Bcd|e2dB A2BA|GE~E2 GBDE||
BG~G2 BGdG|BGGA GEDB|EAAG BABd|gbag gedc|
BG~G2 BGdG|BGGA GEDB|EAAG BABd|gbag gedB||
(3GAB GE DEGB|dGBG AE~E2|~G3E DEGD|GBdB ~A3B|
~G3E DEGB|d2BG AE~E2|~G3E DEGD|GBdB A2G2||
gede g2ag|(3ege de ge~e2|gede gbag|egde g2gg|
g2de g2ag|(3ege de ge~e2|~g3a ~a2ba|geee (3gab ag||

